lib/brands/logos/symantec.svg

<svg xmlns="http://www.w3.org/2000/svg" fill="none" aria-hidden="true" viewBox="0 0 197 60"><g id="Symantec"><g id="Group"><path id="Vector" fill="#FDB511" d="M53.4183 4.92505V6.44043H54.9337V4.92505H53.4183ZM53.4183 7.95582V9.4712H54.9337V7.95582H53.4183ZM48.8722 9.4712V10.9866H50.3875V9.4712H48.8722ZM29.0449 10.6067C17.0127 10.6067 7.26172 20.3577 7.26172 32.3899C7.26172 44.422 17.0127 54.175 29.0449 54.175C41.077 54.175 50.828 44.4241 50.828 32.3899C50.828 20.3557 41.077 10.6067 29.0469 10.6067H29.0449ZM29.0449 17.5533C37.232 17.5533 43.8835 24.2028 43.8835 32.3899C43.8835 40.577 37.232 47.2285 29.0449 47.2285C20.8577 47.2285 14.2709 40.577 14.2709 32.3899C14.2709 24.2028 20.8577 17.5533 29.0449 17.5533V17.5533Z"/><path id="Vector_2" fill="black" d="M63.4704 43.9169C60.3386 43.9169 57.7119 43.139 55.5904 41.5832L57.621 38.2494C59.3182 39.4415 61.2377 40.0375 63.3794 40.0375C64.4301 40.0375 65.2585 39.8355 65.8647 39.4314C66.4708 39.0071 66.7739 38.4211 66.7739 37.6735C66.7739 37.4715 66.7537 37.2896 66.7133 37.128C66.672 36.9644 66.6 36.8101 66.5011 36.6734C66.4001 36.5118 66.2991 36.3804 66.1981 36.2794C66.0599 36.1297 65.8956 36.0064 65.7131 35.9157C65.5111 35.7945 65.3292 35.6934 65.1676 35.6126C64.6796 35.3784 64.1726 35.1857 63.6522 35.0368C63.4502 34.956 63.137 34.8448 62.7127 34.7034C62.2884 34.562 61.9348 34.4407 61.6519 34.3397C60.9954 34.1164 60.357 33.8428 59.7425 33.5214C59.1733 33.187 58.6356 32.8015 58.1362 32.3697C57.5907 31.8848 57.1765 31.2786 56.8936 30.5512C56.6107 29.8037 56.4693 28.955 56.4693 28.0054C56.4693 26.0859 57.1361 24.6008 58.4696 23.5502C59.8031 22.4793 61.561 21.9439 63.7431 21.9439C66.3698 21.9439 68.5014 22.4288 70.1381 23.3986L68.5924 26.884C67.1279 26.1731 65.5225 25.8002 63.8947 25.7929C61.7933 25.7929 60.7427 26.4799 60.7427 27.8539C60.7427 28.1771 60.8033 28.46 60.9245 28.7025C61.0458 28.9449 61.1771 29.147 61.3185 29.3086C61.46 29.4703 61.7125 29.6319 62.0762 29.7935C62.4601 29.9552 62.7733 30.0764 63.0158 30.1572L64.2887 30.5512L64.8948 30.7331C65.602 30.9553 66.2082 31.1675 66.7133 31.3695C67.2184 31.5716 67.7741 31.8646 68.3802 32.2485C68.9864 32.6122 69.4814 33.0264 69.8653 33.4911C70.2492 33.9558 70.5725 34.5418 70.8351 35.2489C71.0978 35.9561 71.2291 36.7441 71.2291 37.6129C71.2291 39.5122 70.5523 41.0377 69.1985 42.1894C67.865 43.3411 65.9556 43.9169 63.4704 43.9169V43.9169ZM78.7091 44.3412L72.9809 27.9448H77.7392L80.6791 39.4011L83.1643 27.9448H87.6195L82.9218 43.826C81.8308 47.5033 79.5577 49.342 76.1026 49.342C75.2944 49.342 74.4357 49.2511 73.5265 49.0692L74.0114 45.8566C74.8196 45.9374 75.3348 45.9779 75.5571 45.9779C76.3855 45.9779 77.032 45.8465 77.4968 45.5839C77.9615 45.3414 78.3656 44.9272 78.7091 44.3412V44.3412ZM102.646 30.0057C104.161 28.3893 105.778 27.5811 107.495 27.5811C109.092 27.5811 110.213 28.1266 110.859 29.2177C111.526 30.3088 111.86 31.6726 111.86 33.3092V43.6139H107.253V33.2486C107.253 31.9959 106.768 31.3695 105.798 31.3695C105.03 31.3695 104.172 31.7939 103.222 32.6425V43.6139H98.6152V33.2486C98.6152 31.9959 98.1302 31.3695 97.1604 31.3695C96.2714 31.3695 95.4127 31.8141 94.5842 32.7031V43.6139H89.9775V27.9448H92.8264L93.7356 30.3391C95.3318 28.5004 97.0392 27.5811 98.8576 27.5811C100.676 27.5811 101.939 28.3893 102.646 30.0057V30.0057ZM123.366 33.582V33.188C123.366 32.4808 123.205 31.9656 122.882 31.6423C122.578 31.319 122.043 31.1574 121.275 31.1574C120.083 31.1574 118.618 31.5615 116.881 32.3697L115.305 29.3389C117.325 28.167 119.447 27.5811 121.669 27.5811C123.75 27.5811 125.316 28.0963 126.367 29.1268C127.438 30.137 127.973 31.5817 127.973 33.4608V43.6139H125.124C124.599 42.5026 124.326 41.9469 124.306 41.9469C122.871 43.2603 121.336 43.9169 119.699 43.9169C118.305 43.9169 117.133 43.5128 116.184 42.7046C115.254 41.8762 114.789 40.7548 114.789 39.3405C114.789 37.6837 115.325 36.4713 116.396 35.7035C117.648 34.7741 119.972 34.0669 123.366 33.582V33.582ZM123.366 39.7345V36.4309C121.366 36.835 120.154 37.2795 119.73 37.7645C119.447 38.0675 119.305 38.4818 119.305 39.0071C119.305 40.1184 119.841 40.674 120.912 40.674C121.801 40.674 122.619 40.3608 123.366 39.7345V39.7345ZM131.651 43.6139V27.9448H134.499L135.409 30.3391C137.005 28.5004 138.753 27.5811 140.652 27.5811C143.642 27.5811 145.137 29.4905 145.137 33.3092V43.6139H140.531V33.2486C140.531 31.9959 140.005 31.3695 138.955 31.3695C137.985 31.3695 137.086 31.8141 136.257 32.7031V43.6139H131.651ZM149.906 31.0968H147.603V27.9448H149.967L150.755 23.4895H154.513V27.9448H157.847V31.0968H154.513V38.6434C154.513 39.3304 154.624 39.8052 154.846 40.0679C155.068 40.3305 155.523 40.4619 156.21 40.4619C156.594 40.4619 157.129 40.3608 157.816 40.1588L158.362 43.3411C157.21 43.725 156.038 43.9169 154.846 43.9169C151.553 43.9169 149.906 42.2399 149.906 38.8859V31.0968ZM165.009 37.128C165.11 38.1989 165.403 38.9869 165.888 39.492C166.393 39.9971 167.141 40.2497 168.131 40.2497C168.676 40.2497 169.222 40.1689 169.768 40.0072C170.333 39.8456 170.747 39.6941 171.01 39.5526C171.293 39.4112 171.707 39.1889 172.253 38.8859L174.071 41.7954C173.445 42.2601 172.909 42.6238 172.465 42.8865C172.02 43.1289 171.384 43.3613 170.556 43.5835C169.727 43.8058 168.808 43.9169 167.798 43.9169C165.494 43.9169 163.655 43.2098 162.282 41.7954C160.928 40.3608 160.251 38.411 160.251 35.946C160.251 33.481 160.897 31.4706 162.191 29.9148C163.484 28.359 165.262 27.5811 167.525 27.5811C169.848 27.5811 171.586 28.359 172.738 29.9148C173.889 31.4706 174.465 33.4709 174.465 35.9157V37.128H165.009ZM165.009 34.4306H169.768C169.768 32.0666 169.01 30.8846 167.494 30.8846C166.767 30.8846 166.201 31.1675 165.797 31.7332C165.393 32.2788 165.13 33.1779 165.009 34.4306V34.4306ZM184.313 43.9169C181.808 43.9169 179.919 43.1794 178.646 41.7045C177.393 40.2093 176.767 38.2595 176.767 35.8551C176.767 33.4507 177.423 31.4706 178.737 29.9148C180.05 28.359 181.909 27.5811 184.313 27.5811C186.435 27.5811 188.162 28.167 189.496 29.3389L187.344 32.4C186.798 31.9959 186.324 31.7231 185.92 31.5817C185.515 31.4201 184.99 31.3392 184.344 31.3392C182.464 31.3392 181.525 32.8243 181.525 35.7945C181.525 38.704 182.485 40.1588 184.404 40.1588C185.435 40.1588 186.475 39.7446 187.526 38.9162L189.738 41.7651C188.304 43.1997 186.495 43.9169 184.313 43.9169V43.9169ZM35.2337 21.5943C31.2775 26.5365 30.2814 28.7065 28.7054 32.7051C26.9173 29.0884 24.7836 26.5931 21.0881 24.9403C20.389 24.7604 20.0455 24.6574 19.5727 25.3181C19.0999 25.9788 19.3888 26.5749 19.9526 27.276C21.4316 29.1147 23.0945 30.8119 24.2462 32.895C25.5979 35.3378 27.2789 39.3607 27.8447 40.4093C28.2953 41.2418 29.3863 41.6095 29.8046 41.6095C32.0393 41.3448 32.0393 40.2073 32.4656 38.2373C33.1566 35.0065 34.0517 31.6666 38.2645 27.6538V21.5923L35.2337 21.5943Z"/><path id="Vector_3" fill="black" d="M51.9029 6.44043V7.95581H53.4183V6.44043H51.9029ZM51.9029 7.95581H48.8721V9.4712H51.9029V7.95581ZM48.8721 9.4712H47.3568V12.502H48.8721V9.4712ZM48.8721 12.502V14.0174H50.3875V12.502H48.8721ZM50.3875 12.502H51.9029V10.9866H50.3875V12.502ZM48.8721 14.0174H47.3568V15.5327H45.8414V14.0174H42.8106V15.5327H41.2952V17.0481H42.8106V18.5635H41.2952V17.0481H39.7798V18.5635H38.2645V20.0789H36.7491V26.1404H39.7798V24.625H41.2952V23.1097H42.8106V21.5943H41.2952V20.0789H42.8106V21.5943H44.326V20.0789H45.8414V18.5635H47.3568V17.0481H48.8721V14.0174ZM45.8414 14.0174H47.3568V12.502H45.8414V14.0174ZM45.8414 12.502V10.9866H44.326V12.502H45.8414Z"/></g></g></svg>

<svg xmlns="http://www.w3.org/2000/svg" fill="none" aria-hidden="true" viewBox="0 0 197 60"><path fill="#FDB511" d="M53.418 4.925V6.44h1.516V4.925h-1.516Zm0 3.03v1.516h1.516V7.956h-1.516Zm-4.546 1.516v1.515h1.516V9.471h-1.516Zm-19.827 1.136c-12.032 0-21.783 9.75-21.783 21.783 0 12.032 9.75 21.785 21.783 21.785 12.032 0 21.783-9.751 21.783-21.785s-9.751-21.783-21.781-21.783h-.002Zm0 6.946c8.187 0 14.838 6.65 14.838 14.837s-6.651 14.838-14.838 14.838S14.27 40.578 14.27 32.39s6.587-14.837 14.774-14.837Z"/><path fill="#000" d="M63.47 43.917c-3.131 0-5.758-.778-7.88-2.334l2.031-3.334c1.697 1.192 3.617 1.788 5.758 1.788 1.051 0 1.88-.202 2.486-.606.606-.424.909-1.01.909-1.758 0-.202-.02-.383-.06-.545a1.333 1.333 0 0 0-.213-.455 2.228 2.228 0 0 0-.303-.394 1.676 1.676 0 0 0-.485-.363 8.234 8.234 0 0 0-.545-.303 9.618 9.618 0 0 0-1.516-.576 18.728 18.728 0 0 0-.94-.334 53.656 53.656 0 0 1-1.06-.363 13.5 13.5 0 0 1-1.91-.819 10.89 10.89 0 0 1-1.606-1.151 4.637 4.637 0 0 1-1.242-1.819c-.283-.747-.425-1.596-.425-2.546 0-1.92.667-3.404 2-4.455 1.334-1.07 3.092-1.606 5.274-1.606 2.627 0 4.758.485 6.395 1.455l-1.546 3.485a10.869 10.869 0 0 0-4.697-1.091c-2.102 0-3.152.687-3.152 2.06 0 .324.06.607.181.85.122.242.253.444.395.606.141.161.393.323.757.485.384.161.697.282.94.363l1.273.394.606.182c.707.222 1.313.434 1.818.636a10.38 10.38 0 0 1 1.667.88c.606.363 1.101.777 1.485 1.242.384.465.708 1.05.97 1.758.263.707.394 1.495.394 2.364 0 1.9-.677 3.425-2.03 4.576-1.334 1.152-3.243 1.728-5.729 1.728Zm15.24.424-5.73-16.396h4.76L80.68 39.4l2.484-11.456h4.456l-4.698 15.88c-1.091 3.678-3.364 5.517-6.82 5.517-.808 0-1.666-.091-2.576-.273l.485-3.212c.809.08 1.324.12 1.546.12.828 0 1.475-.13 1.94-.393.465-.243.869-.657 1.212-1.243Zm23.936-14.335c1.515-1.617 3.132-2.425 4.849-2.425 1.597 0 2.718.546 3.364 1.637.667 1.09 1.001 2.455 1.001 4.091v10.305h-4.607V33.249c0-1.253-.485-1.88-1.455-1.88-.768 0-1.626.425-2.576 1.273v10.972h-4.607V33.249c0-1.253-.485-1.88-1.455-1.88-.889 0-1.747.445-2.576 1.334v10.91h-4.606V27.946h2.848l.91 2.394c1.596-1.839 3.303-2.758 5.122-2.758 1.818 0 3.081.808 3.788 2.425Zm20.72 3.576v-.394c0-.707-.161-1.223-.484-1.546-.304-.323-.839-.485-1.607-.485-1.192 0-2.657.404-4.394 1.213l-1.576-3.031c2.02-1.172 4.142-1.758 6.364-1.758 2.081 0 3.647.515 4.698 1.546 1.071 1.01 1.606 2.455 1.606 4.334v10.153h-2.849c-.525-1.111-.798-1.667-.818-1.667-1.435 1.313-2.97 1.97-4.607 1.97-1.394 0-2.566-.404-3.515-1.212-.93-.829-1.395-1.95-1.395-3.365 0-1.656.536-2.869 1.607-3.637 1.252-.929 3.576-1.636 6.97-2.121Zm0 6.152v-3.303c-2 .404-3.212.849-3.636 1.333-.283.303-.425.718-.425 1.243 0 1.111.536 1.667 1.607 1.667.889 0 1.707-.313 2.454-.94Zm8.285 3.88v-15.67h2.848l.91 2.395c1.596-1.839 3.344-2.758 5.243-2.758 2.99 0 4.485 1.91 4.485 5.728v10.305h-4.606V33.249c0-1.253-.526-1.88-1.576-1.88-.97 0-1.869.445-2.698 1.334v10.91h-4.606Zm18.255-12.517h-2.303v-3.152h2.364l.788-4.456h3.758v4.456h3.334v3.152h-3.334v7.546c0 .687.111 1.162.333 1.425.222.263.677.394 1.364.394.384 0 .919-.101 1.606-.303l.546 3.182a11.053 11.053 0 0 1-3.516.576c-3.293 0-4.94-1.677-4.94-5.031v-7.79Zm15.103 6.03c.101 1.072.394 1.86.879 2.365.505.505 1.253.758 2.243.758.545 0 1.091-.081 1.637-.243.565-.161.979-.313 1.242-.454.283-.142.697-.364 1.243-.667l1.818 2.91a19.15 19.15 0 0 1-1.606 1.09c-.445.243-1.081.475-1.909.697-.829.223-1.748.334-2.758.334-2.304 0-4.143-.707-5.516-2.122-1.354-1.434-2.031-3.384-2.031-5.85 0-2.464.646-4.474 1.94-6.03 1.293-1.556 3.071-2.334 5.334-2.334 2.323 0 4.061.778 5.213 2.334 1.151 1.556 1.727 3.556 1.727 6v1.213h-9.456Zm0-2.696h4.759c0-2.364-.758-3.546-2.274-3.546-.727 0-1.293.282-1.697.848-.404.546-.667 1.445-.788 2.698Zm19.304 9.486c-2.505 0-4.394-.738-5.667-2.213-1.253-1.495-1.879-3.445-1.879-5.849 0-2.404.656-4.384 1.97-5.94 1.313-1.556 3.172-2.334 5.576-2.334 2.122 0 3.849.586 5.183 1.758l-2.152 3.06c-.546-.403-1.02-.676-1.424-.817-.405-.162-.93-.243-1.576-.243-1.88 0-2.819 1.485-2.819 4.455 0 2.91.96 4.365 2.879 4.365 1.031 0 2.071-.414 3.122-1.243l2.212 2.849c-1.434 1.435-3.243 2.152-5.425 2.152ZM35.233 21.594c-3.955 4.942-4.952 7.112-6.528 11.111-1.788-3.617-3.921-6.112-7.617-7.765-.699-.18-1.043-.283-1.515.378-.473.66-.184 1.257.38 1.958 1.479 1.839 3.142 3.536 4.293 5.619 1.352 2.443 3.033 6.466 3.599 7.514.45.833 1.541 1.2 1.96 1.2 2.234-.264 2.234-1.402 2.66-3.372.692-3.23 1.587-6.57 5.8-10.583v-6.062l-3.031.002Z"/><path fill="#000" d="M51.903 6.44v1.516h1.515V6.44h-1.515Zm0 1.516h-3.03V9.47h3.03V7.956Zm-3.03 1.515h-1.516v3.03h1.515v-3.03Zm0 3.03v1.516h1.515v-1.515h-1.516Zm1.515 0h1.515v-1.514h-1.515v1.515Zm-1.516 1.516h-1.515v1.516H45.84v-1.516h-3.03v1.516h-1.516v1.515h1.516v1.515h-1.516v-1.515H39.78v1.515h-1.516v1.516H36.75v6.061h3.03v-1.515h1.516V23.11h1.516v-1.516h-1.516V20.08h1.516v1.515h1.515V20.08h1.515v-1.516h1.516v-1.515h1.515v-3.03Zm-3.03 0h1.515v-1.515H45.84v1.515Zm0-1.515v-1.516h-1.516v1.516h1.515Z"/></svg>
